src/symbols/other-symbol/2B55.svg

<svg id="emoji" viewBox="0 0 72 72" xmlns="http://www.w3.org/2000/svg">
  <g id="grid">
    <path fill="#b3b3b3" d="M68,4V68H4V4H68m4-4H0V72H72V0Z"/>
    <path fill="none" stroke="#00a5ff" stroke-miterlimit="10" stroke-width="0.1" d="M12.923,10.9583H59.0769A1.9231,1.9231,0,0,1,61,12.8814V59.0352a1.9231,1.9231,0,0,1-1.9231,1.9231H12.9231A1.9231,1.9231,0,0,1,11,59.0352V12.8813A1.923,1.923,0,0,1,12.923,10.9583Z"/>
    <rect x="16" y="4" rx="2.2537" width="40" height="64" fill="none" stroke="#00a5ff" stroke-miterlimit="10" stroke-width="0.1"/>
    <rect x="16" y="4" rx="2.2537" width="40" height="64" transform="translate(72) rotate(90)" fill="none" stroke="#00a5ff" stroke-miterlimit="10" stroke-width="0.1"/>
    <circle cx="36" cy="36" r="29" fill="none" stroke="#00a5ff" stroke-miterlimit="10" stroke-width="0.1"/>
  </g>
  <g id="color">
    <path fill="#EA5A47" stroke="none" d="M35.5661,6.4066c-16.0162,0-29,12.9838-29,29c0,16.0164,12.9838,29,29,29s29-12.9836,29-29 C64.5661,19.3903,51.5823,6.4066,35.5661,6.4066z M35.5661,55.4066c-11.0457,0-20-8.9543-20-20s8.9543-20,20-20s20,8.9543,20,20 S46.6118,55.4066,35.5661,55.4066z"/>
  </g>
  <g id="hair"/>
  <g id="skin"/>
  <g id="skin-shadow"/>
  <g id="line">
    <path fill="none" stroke="#000000" stroke-miterlimit="10" d="M48.5153,25.5046"/>
    <path fill="none" stroke="#000000" stroke-miterlimit="10" d="M66,37.6554"/>
    <path fill="none" stroke="#000000" stroke-miterlimit="10" d="M48.5153,26.3185"/>
    <circle cx="35.7952" cy="35.9372" r="29" fill="none" stroke="#000000" stroke-linecap="round" stroke-linejoin="round" stroke-width="2"/>
    <circle cx="35.7952" cy="35.9372" r="20" fill="none" stroke="#000000" stroke-linecap="round" stroke-linejoin="round" stroke-width="2"/>
  </g>
</svg>

<svg viewBox="0 0 72 72" xmlns="http://www.w3.org/2000/svg"><path fill="#b3b3b3" d="M68 4v64H4V4h64m4-4H0v72h72V0z"/><path fill="none" stroke="#00a5ff" stroke-miterlimit="10" stroke-width=".1" d="M12.923 10.958h46.154A1.923 1.923 0 0161 12.881v46.154a1.923 1.923 0 01-1.923 1.923H12.923A1.923 1.923 0 0111 59.035V12.881a1.923 1.923 0 011.923-1.923z"/><rect x="16" y="4" rx="2.254" width="40" height="64" fill="none" stroke="#00a5ff" stroke-miterlimit="10" stroke-width=".1"/><rect x="16" y="4" rx="2.254" width="40" height="64" transform="rotate(90 36 36)" fill="none" stroke="#00a5ff" stroke-miterlimit="10" stroke-width=".1"/><circle cx="36" cy="36" r="29" fill="none" stroke="#00a5ff" stroke-miterlimit="10" stroke-width=".1"/><g stroke-linecap="round" stroke-miterlimit="10" stroke-width="6" stroke="#fff" fill="none" stroke-linejoin="round"><circle cx="35.795" cy="35.937" r="29"/><circle cx="35.795" cy="35.937" r="20"/></g><path fill="#EA5A47" d="M35.566 6.407c-16.016 0-29 12.983-29 29 0 16.016 12.984 29 29 29s29-12.984 29-29c0-16.017-12.984-29-29-29zm0 49c-11.046 0-20-8.955-20-20s8.954-20 20-20 20 8.954 20 20-8.954 20-20 20z"/><g fill="none" stroke="#000" stroke-linecap="round" stroke-linejoin="round" stroke-width="2"><circle cx="35.795" cy="35.937" r="29"/><circle cx="35.795" cy="35.937" r="20"/></g></svg>
